Catalina-dark/actions/16/distribute-vertical-bottom.svg

<?xml version="1.0" encoding="UTF-8" standalone="no"?>
<svg
   xmlns:dc="http://purl.org/dc/elements/1.1/"
   xmlns:cc="http://creativecommons.org/ns#"
   xmlns:rdf="http://www.w3.org/1999/02/22-rdf-syntax-ns#"
   xmlns:svg="http://www.w3.org/2000/svg"
   xmlns="http://www.w3.org/2000/svg"
   xmlns:sodipodi="http://sodipodi.sourceforge.net/DTD/sodipodi-0.dtd"
   xmlns:inkscape="http://www.inkscape.org/namespaces/inkscape"
   width="16"
   height="16"
   viewBox="0 0 16 16"
   version="1.1"
   id="svg7"
   sodipodi:docname="distribute-vertical-bottom.svg"
   inkscape:version="0.92.4 5da689c313, 2019-01-14">
  <metadata
     id="metadata11">
    <rdf:RDF>
      <cc:Work
         rdf:about="">
        <dc:format>image/svg+xml</dc:format>
        <dc:type
           rdf:resource="http://purl.org/dc/dcmitype/StillImage" />
      </cc:Work>
    </rdf:RDF>
  </metadata>
  <sodipodi:namedview
     pagecolor="#ffffff"
     bordercolor="#666666"
     borderopacity="1"
     objecttolerance="10"
     gridtolerance="10"
     guidetolerance="10"
     inkscape:pageopacity="0"
     inkscape:pageshadow="2"
     inkscape:window-width="640"
     inkscape:window-height="480"
     id="namedview9"
     showgrid="false"
     inkscape:zoom="14.75"
     inkscape:cx="6.8135593"
     inkscape:cy="8"
     inkscape:window-x="0"
     inkscape:window-y="26"
     inkscape:window-maximized="0"
     inkscape:current-layer="svg7" />
  <defs
     id="defs3">
    <style
       id="current-color-scheme"
       type="text/css">
   .ColorScheme-Text { color:#5c616c; } .ColorScheme-Highlight { color:#5294e2; }
  </style>
  </defs>
  <path
     style="fill:#f1f6f8;fill-opacity:0.8509804"
     class="ColorScheme-Text"
     d="M 2.9960938 0.00390625 L 2.9960938 5.0039062 L 0.99609375 5.0039062 L 0.99609375 7.0039062 L 14.996094 7.0039062 L 14.996094 5.0039062 L 12.996094 5.0039062 L 12.996094 0.00390625 L 8.9960938 0.00390625 L 8.9960938 5.0039062 L 6.9960938 5.0039062 L 6.9960938 0.00390625 L 2.9960938 0.00390625 z M 2.9960938 9.0039062 L 2.9960938 14.003906 L 0.99609375 14.003906 L 0.99609375 16.003906 L 14.996094 16.003906 L 14.996094 14.003906 L 12.996094 14.003906 L 12.996094 9.0039062 L 8.9960938 9.0039062 L 8.9960938 14.003906 L 6.9960938 14.003906 L 6.9960938 9.0039062 L 2.9960938 9.0039062 z"
     id="path5" />
</svg>

<svg width="16" height="16" version="1.1" viewBox="0 0 16 16" xmlns="http://www.w3.org/2000/svg">
<defs>
<style id="current-color-scheme" type="text/css">.ColorScheme-Text { color:#5c616c; } .ColorScheme-Highlight { color:#5294e2; }</style>
</defs>
<path class="ColorScheme-Text" d="m2.9961 0.0039062v5h-2v2h14v-2h-2v-5h-4v5h-2v-5h-4zm0 9v5h-2v2h14v-2h-2v-5h-4v5h-2v-5h-4z" fill="#dedede" fill-opacity=".85098"/>
</svg>
